icons/evolvere-blue-folders-flat-vivid-dark-fallback/mimetypes/64/ms-office-presentation.svg

<?xml version="1.0" encoding="UTF-8" standalone="no"?>
<!-- Created with Inkscape (http://www.inkscape.org/) -->

<svg
   xmlns:dc="http://purl.org/dc/elements/1.1/"
   xmlns:cc="http://creativecommons.org/ns#"
   xmlns:rdf="http://www.w3.org/1999/02/22-rdf-syntax-ns#"
   xmlns:svg="http://www.w3.org/2000/svg"
   xmlns="http://www.w3.org/2000/svg"
   xmlns:xlink="http://www.w3.org/1999/xlink"
   xmlns:sodipodi="http://sodipodi.sourceforge.net/DTD/sodipodi-0.dtd"
   xmlns:inkscape="http://www.inkscape.org/namespaces/inkscape"
   version="1.1"
   width="64"
   height="64"
   id="svg13094"
   inkscape:version="0.48.4 r9939"
   sodipodi:docname="ms-office-presentation.svg">
  <sodipodi:namedview
     pagecolor="#ffffff"
     bordercolor="#666666"
     borderopacity="1"
     objecttolerance="10"
     gridtolerance="10"
     guidetolerance="10"
     inkscape:pageopacity="0"
     inkscape:pageshadow="2"
     inkscape:window-width="1920"
     inkscape:window-height="1022"
     id="namedview68"
     showgrid="true"
     inkscape:zoom="10.429825"
     inkscape:cx="30.617165"
     inkscape:cy="29.041008"
     inkscape:window-x="-5"
     inkscape:window-y="23"
     inkscape:window-maximized="1"
     inkscape:current-layer="svg13094"
     inkscape:snap-bbox="true"
     inkscape:bbox-paths="true"
     inkscape:bbox-nodes="true"
     inkscape:snap-bbox-edge-midpoints="true"
     inkscape:snap-bbox-midpoints="true"
     inkscape:object-paths="true"
     inkscape:snap-intersection-paths="true"
     inkscape:object-nodes="true"
     inkscape:snap-smooth-nodes="true"
     inkscape:snap-midpoints="true"
     inkscape:snap-object-midpoints="true"
     inkscape:snap-center="true">
    <inkscape:grid
       type="xygrid"
       id="grid3839" />
  </sodipodi:namedview>
  <defs
     id="defs11">
    <linearGradient
       gradientTransform="translate(0,-64)"
       gradientUnits="userSpaceOnUse"
       id="linearGradient3829"
       y2="88"
       x2="32.669781"
       y1="110.2137"
       x1="48.917568">
      <stop
         offset="0"
         style="stop-color:#f47a37;stop-opacity:1"
         id="stop3831" />
      <stop
         offset="0.50050378"
         style="stop-color:#f47a37;stop-opacity:1"
         id="stop3833" />
      <stop
         offset="0.5"
         style="stop-color:#ed6c27;stop-opacity:1"
         id="stop3835" />
      <stop
         offset="1"
         style="stop-color:#ed6c27;stop-opacity:1"
         id="stop3837" />
    </linearGradient>
    <linearGradient
       inkscape:collect="always"
       xlink:href="#linearGradient3829"
       id="linearGradient4937-1"
       gradientUnits="userSpaceOnUse"
       gradientTransform="translate(66.99748,-63.865696)"
       x1="-44.997482"
       y1="127.8657"
       x2="-44.997307"
       y2="65.865692" />
  </defs>
  <metadata
     id="metadata13099">
    <rdf:RDF>
      <cc:Work
         rdf:about="">
        <dc:format>image/svg+xml</dc:format>
        <dc:type
           rdf:resource="http://purl.org/dc/dcmitype/StillImage" />
        <dc:title />
      </cc:Work>
    </rdf:RDF>
  </metadata>
  <path
     inkscape:connector-curvature="0"
     d="M 4,0 64,0 64,62 4,62 z"
     id="path3960"
     style="fill:#db4506;fill-opacity:1;fill-rule:nonzero" />
  <path
     inkscape:connector-curvature="0"
     style="fill:#802d00;fill-opacity:0.37456138;fill-rule:nonzero"
     d="M 60,2 60,33 35.677734,62 64,62 64,37 64,6 60,2 z"
     id="path3900" />
  <path
     inkscape:connector-curvature="0"
     d="M 0,2 60,2 60,33 34,64 0,64 z"
     id="path3982"
     style="color:#000000;fill:#ff6716;fill-opacity:1;fill-rule:nonzero;stroke:none;stroke-width:1;marker:none;visibility:visible;display:inline;overflow:visible;enable-background:accumulate" />
  <path
     inkscape:connector-curvature="0"
     d="M 34,64 60,33 c -2.328567,2.776369 -4.36141,3 -11,3 H 37 v 15 c 0,6.64407 0.04437,9.37018 -3,13 z"
     id="path4278"
     style="fill:#df4f0a;fill-opacity:1;fill-rule:nonzero" />
  <path
     inkscape:connector-curvature="0"
     style="font-size:medium;font-style:normal;font-variant:normal;font-weight:normal;font-stretch:normal;text-indent:0;text-align:start;text-decoration:none;line-height:normal;letter-spacing:normal;word-spacing:normal;text-transform:none;direction:ltr;block-progression:tb;writing-mode:lr-tb;text-anchor:start;baseline-shift:baseline;color:#000000;fill:#f8f2e0;fill-opacity:1;stroke:none;stroke-width:2;marker:none;visibility:visible;display:inline;overflow:visible;enable-background:accumulate;font-family:Sans;-inkscape-font-specification:Sans"
     d="m 5,7 0,1 0,13 0,1 1,0 8.5625,0 -6.28125,6.28125 1.4375,1.4375 L 22.125,17.3125 c 0.01438,0.304821 0.01596,0.572906 0.09375,0.59375 0.211339,0.05663 0.944911,-1.474622 1.15625,-1.53125 0.211339,-0.05663 1.595289,0.904711 1.75,0.75 0.154711,-0.154711 -0.806628,-1.538661 -0.75,-1.75 0.05663,-0.211339 1.587878,-0.944911 1.53125,-1.15625 C 25.849622,14.007411 24.154711,14.154711 24,14 23.845289,13.845289 23.9926,12.150378 23.78125,12.09375 23.569911,12.03712 22.836339,13.568372 22.625,13.625 c -0.211339,0.05663 -1.595289,-0.904711 -1.75,-0.75 -0.154711,0.154711 0.806628,1.538661 0.75,1.75 -0.05663,0.211339 -1.587878,0.944911 -1.53125,1.15625 0.02084,0.07779 0.288929,0.07937 0.59375,0.09375 L 16.5625,20 7,20 7,9 l 20,0 0,11 -6,0 0,2 7,0 1,0 0,-1 L 29,8 29,7 28,7 6,7 5,7 z m 14.71875,15.28125 -1.4375,1.4375 6,6 1.4375,-1.4375 -6,-6 z"
     id="path3016" />
  <path
     style="color:#000000;fill:#f8f2e0;fill-opacity:1;fill-rule:nonzero;stroke:none;stroke-width:1;marker:none;visibility:visible;display:inline;overflow:visible;enable-background:accumulate"
     d="m 47,7 c -0.554,0 -1,0.446 -1,1 l 0,7 c 0,0.554 0.446,1 1,1 l 3,0 0,-2 -2,0 0,-5 5,0 0,2 2,0 0,-3 C 55,7.446 54.554,7 54,7 l -7,0 z m 6.5,6 C 52.67157,13 52,13.67157 52,14.5 52,15.32843 52.67157,16 53.5,16 54.32843,16 55,15.32843 55,14.5 55,13.67157 54.32843,13 53.5,13 z"
     id="path3004"
     inkscape:connector-curvature="0" />
</svg>

<svg xmlns="http://www.w3.org/2000/svg" viewBox="0 0 64 64"><path d="m4 0h60v62h-60z" fill="#db4506"/><path d="m60 2v31l-24.322 29h28.322v-25-31l-4-4" fill="#802d00" fill-opacity=".375"/><path d="m0 2h60v31l-26 31h-34z" fill="#ff6716" color="#000"/><path d="m34 64l26-31c-2.329 2.776-4.361 3-11 3h-12v15c0 6.644.044 9.37-3 13" fill="#df4f0a"/><g fill="#f8f2e0" color="#000"><path d="m5 7v1 13 1h1 8.563l-6.281 6.281 1.438 1.438 12.406-12.406c.014.305.016.573.094.594.211.057.945-1.475 1.156-1.531.211-.057 1.595.905 1.75.75.155-.155-.807-1.539-.75-1.75.057-.211 1.588-.945 1.531-1.156-.057-.211-1.752-.064-1.906-.219-.155-.155-.007-1.85-.219-1.906-.211-.057-.945 1.475-1.156 1.531-.211.057-1.595-.905-1.75-.75-.155.155.807 1.539.75 1.75-.057.211-1.588.945-1.531 1.156.021.078.289.079.594.094l-4.125 4.125h-9.563v-11h20v11h-6v2h7 1v-1-13-1h-1-22-1m14.719 15.281l-1.438 1.438 6 6 1.438-1.438-6-6"/><path d="m47 7c-.554 0-1 .446-1 1v7c0 .554.446 1 1 1h3v-2h-2v-5h5v2h2v-3c0-.554-.446-1-1-1h-7m6.5 6c-.828 0-1.5.672-1.5 1.5 0 .828.672 1.5 1.5 1.5.828 0 1.5-.672 1.5-1.5 0-.828-.672-1.5-1.5-1.5"/></g></svg>
